framework/flag-icon-css/cf.svg

<svg xmlns="http://www.w3.org/2000/svg" height="480" width="640" viewBox="0 0 640 480">
  <defs>
    <clipPath id="a">
      <path fill-opacity=".67" d="M-12.355 32h640v480h-640z"/>
    </clipPath>
  </defs>
  <g clip-path="url(#a)" fill-rule="evenodd" transform="translate(12.355 -32)">
    <path fill="#00f" d="M-52 32h719.29v118.94H-52z"/>
    <path fill="#ff0" d="M-52 391.65h719.29V512H-52z"/>
    <path fill="#009a00" d="M-52 271.3h719.29v120.35H-52z"/>
    <path fill="#fff" d="M-52 150.94h719.29v120.35H-52z"/>
    <path fill="red" d="M247.7 32.474h119.88v479.53H247.7z"/>
    <path fill="#ff0" d="M99.253 137.653L67.837 115.93l-31.314 21.937 10.87-36.717-30.457-23.118 38.14-.968 12.49-36.22 12.702 36.113 38.173.732-30.284 23.288"/>
  </g>
</svg>

<?xml version="1.0" encoding="UTF-8" standalone="no"?>
<svg
   xmlns:dc="http://purl.org/dc/elements/1.1/"
   xmlns:cc="http://creativecommons.org/ns#"
   xmlns:rdf="http://www.w3.org/1999/02/22-rdf-syntax-ns#"
   xmlns:svg="http://www.w3.org/2000/svg"
   xmlns="http://www.w3.org/2000/svg"
   xmlns:sodipodi="http://sodipodi.sourceforge.net/DTD/sodipodi-0.dtd"
   xmlns:inkscape="http://www.inkscape.org/namespaces/inkscape"
   height="15.999998"
   width="21.333332"
   viewBox="0 0 21.333332 15.999998"
   version="1.1"
   id="svg21"
   sodipodi:docname="cf.svg"
   inkscape:version="0.92.1 r">
  <metadata
     id="metadata25">
    <rdf:RDF>
      <cc:Work
         rdf:about="">
        <dc:format>image/svg+xml</dc:format>
        <dc:type
           rdf:resource="http://purl.org/dc/dcmitype/StillImage" />
        <dc:title></dc:title>
      </cc:Work>
    </rdf:RDF>
  </metadata>
  <sodipodi:namedview
     pagecolor="#ffffff"
     bordercolor="#666666"
     borderopacity="1"
     objecttolerance="10"
     gridtolerance="10"
     guidetolerance="10"
     inkscape:pageopacity="0"
     inkscape:pageshadow="2"
     inkscape:window-width="1920"
     inkscape:window-height="1024"
     id="namedview23"
     showgrid="false"
     fit-margin-top="0"
     fit-margin-left="0"
     fit-margin-right="0"
     fit-margin-bottom="0"
     inkscape:zoom="0.49166667"
     inkscape:cx="320"
     inkscape:cy="239.99999"
     inkscape:window-x="0"
     inkscape:window-y="0"
     inkscape:window-maximized="1"
     inkscape:current-layer="svg21" />
  <defs
     id="defs5">
    <clipPath
       id="a">
      <path
         d="m -12.355,32 h 640 v 480 h -640 z"
         id="path2"
         inkscape:connector-curvature="0"
         style="fill-opacity:0.67000002" />
    </clipPath>
  </defs>
  <g
     clip-path="url(#a)"
     transform="matrix(0.03333333,0,0,0.03333333,0.41183329,-1.0666666)"
     id="g19"
     style="fill-rule:evenodd">
    <path
       d="M -52,32 H 667.29 V 150.94 H -52 Z"
       id="path7"
       inkscape:connector-curvature="0"
       style="fill:#0000ff" />
    <path
       d="M -52,391.65 H 667.29 V 512 H -52 Z"
       id="path9"
       inkscape:connector-curvature="0"
       style="fill:#ffff00" />
    <path
       d="M -52,271.3 H 667.29 V 391.65 H -52 Z"
       id="path11"
       inkscape:connector-curvature="0"
       style="fill:#009a00" />
    <path
       d="M -52,150.94 H 667.29 V 271.29 H -52 Z"
       id="path13"
       inkscape:connector-curvature="0"
       style="fill:#ffffff" />
    <path
       d="m 247.7,32.474 h 119.88 v 479.53 H 247.7 Z"
       id="path15"
       inkscape:connector-curvature="0"
       style="fill:#ff0000" />
    <path
       d="M 99.253,137.653 67.837,115.93 36.523,137.867 47.393,101.15 16.936,78.032 l 38.14,-0.968 12.49,-36.22 12.702,36.113 38.173,0.732 -30.284,23.288"
       id="path17"
       inkscape:connector-curvature="0"
       style="fill:#ffff00" />
  </g>
</svg>
